poi/svg/2110.svg

<?xml version="1.0" encoding="UTF-8" standalone="no"?>
<svg
   xmlns:dc="http://purl.org/dc/elements/1.1/"
   xmlns:cc="http://creativecommons.org/ns#"
   xmlns:rdf="http://www.w3.org/1999/02/22-rdf-syntax-ns#"
   xmlns:svg="http://www.w3.org/2000/svg"
   xmlns="http://www.w3.org/2000/svg"
   xmlns:sodipodi="http://sodipodi.sourceforge.net/DTD/sodipodi-0.dtd"
   xmlns:inkscape="http://www.inkscape.org/namespaces/inkscape"
   inkscape:version="1.0 (4035a4fb49, 2020-05-01)"
   sodipodi:docname="2110.svg"
   id="svg20"
   version="1.2"
   viewBox="0 0 42.519639 42.519639"
   height="14.999999mm"
   width="14.999999mm">
  <metadata
     id="metadata24">
    <rdf:RDF>
      <cc:Work
         rdf:about="">
        <dc:format>image/svg+xml</dc:format>
        <dc:type
           rdf:resource="http://purl.org/dc/dcmitype/StillImage" />
        <dc:title>Qt SVG Document</dc:title>
      </cc:Work>
    </rdf:RDF>
  </metadata>
  <sodipodi:namedview
     inkscape:current-layer="svg20"
     inkscape:window-maximized="0"
     inkscape:window-y="0"
     inkscape:window-x="0"
     inkscape:cy="28.346482"
     inkscape:cx="28.346482"
     inkscape:zoom="5.8410537"
     showgrid="false"
     id="namedview22"
     inkscape:window-height="480"
     inkscape:window-width="1034"
     inkscape:pageshadow="2"
     inkscape:pageopacity="0"
     guidetolerance="10"
     gridtolerance="10"
     objecttolerance="10"
     borderopacity="1"
     bordercolor="#666666"
     pagecolor="#ffffff" />
  <title
     id="title2">Qt SVG Document</title>
  <desc
     id="desc4">Generated with Qt</desc>
  <defs
     id="defs6" />
  <g
     transform="translate(5.25984,5.25984)"
     id="g18"
     stroke-linejoin="bevel"
     stroke-linecap="square"
     fill-rule="evenodd"
     stroke-width="1"
     stroke="#000000"
     fill="none">
    <g
       id="g10"
       font-style="normal"
       font-weight="400"
       font-size="7.8px"
       font-family="'MS Shell Dlg 2'"
       stroke="none"
       fill-opacity="1"
       fill="#a61215">
      <path
         id="path8"
         d="M 37.2598,16 C 37.2598,27.7415 27.7415,37.2598 16,37.2598 4.25851,37.2598 -5.25984,27.7415 -5.25984,16 -5.25984,4.25851 4.25851,-5.25984 16,-5.25984 27.7415,-5.25984 37.2598,4.25851 37.2598,16"
         fill-rule="evenodd"
         vector-effect="non-scaling-stroke" />
    </g>
    <g
       id="g14"
       font-style="normal"
       font-weight="400"
       font-size="7.8px"
       font-family="'MS Shell Dlg 2'"
       transform="translate(14.8661,12.5984)"
       stroke="none"
       fill-opacity="0.94902"
       fill="#ffffff">
      <path
         id="path12"
         d="m 5.87402,14.209 c 0.48991,0 0.90633,0.1715 1.24927,0.5144 0.34294,0.3429 0.51441,0.7593 0.51441,1.2493 0,0.4899 -0.17147,0.9063 -0.51441,1.2492 -0.34294,0.343 -0.75936,0.5144 -1.24927,0.5144 -0.48991,0 -0.90633,-0.1714 -1.24926,-0.5144 -0.34294,-0.3429 -0.51441,-0.7593 -0.51441,-1.2492 0,-0.49 0.17147,-0.9064 0.51441,-1.2493 0.34293,-0.3429 0.75935,-0.5144 1.24926,-0.5144 m -8.29345,0 c 0.47591,0 0.88883,0.1715 1.23877,0.5144 0.349931,0.3429 0.524898,0.7593 0.524898,1.2493 0,0.4899 -0.174967,0.9063 -0.524898,1.2492 -0.34994,0.343 -0.76286,0.5144 -1.23877,0.5144 -0.48991,0 -0.90633,-0.1714 -1.24927,-0.5144 -0.34294,-0.3429 -0.51441,-0.7593 -0.51441,-1.2492 0,-0.49 0.17147,-0.9064 0.51441,-1.2493 0.34294,-0.3429 0.75936,-0.5144 1.24927,-0.5144 M 8.79248,4.80273 C 9.03044,4.85872 9.2054,4.9847 9.31738,5.18066 9.42936,5.37663 9.45736,5.59359 9.40137,5.83154 L 7.72168,12.5713 C 7.6377,13.0052 7.36475,13.2222 6.90283,13.2222 H -4.14111 c -0.46192,0 -0.73487,-0.217 -0.81885,-0.6509 L -7.58447,2.09424 h -1.34375 c -0.08399,0.41992 -0.35694,0.62988 -0.81885,0.62988 h -2.79253 c -0.2239,0 -0.4234,-0.07698 -0.5983,-0.23096 -0.175,-0.15397 -0.2625,-0.34993 -0.2625,-0.58789 0,-0.16797 0.014,-0.27994 0.042,-0.33593 -0.028,-0.05599 -0.042,-0.16797 -0.042,-0.33594 0,-0.237957 0.0875,-0.433921 0.2625,-0.587892 0.1749,-0.153972 0.3744,-0.230957 0.5983,-0.230957 h 5.648 c 0.39193,0 0.66487,0.209961 0.81885,0.629879 l 2.60351,10.49807 h 9.6792 L 7.76367,5.39063 C 7.81966,5.16667 7.94914,4.9952 8.1521,4.87622 8.35506,4.75724 8.56852,4.73275 8.79248,4.80273 M -2.90234,-0.530273 -5.35889,0.141602 -5.2749,-8.23584 -4.66602,-8.27783 0.960938,-1.66406 -1.5166,-0.971191 0.792969,0.372559 0.834961,0.498535 1.27588,1.31738 0.750977,1.94727 0.24707,0.918457 -2.25146,-0.530273 -3.59521,-4.1416 -2.90234,-0.530273 M 2.68262,6.69238 3.03955,6.52441 2.68262,5.83154 3.20752,5.18066 3.71143,6.20947 4.02637,6.0415 5.22314,8.49805 3.90039,9.12793 2.68262,6.69238 m 9.30128,-9.51123 -1.5537,5.08106 -8.33547,-6.67676 3.04443,-3.82129 6.84474,5.41699 m -1.8897,-2.37256 -1.63766,-1.28076 0.41992,-0.56689 1.63774,1.30176 -0.42,0.54589 M 6.25195,-0.362305 2.95557,3.79492 1.31787,2.47217 4.61426,-1.66406 6.25195,-0.362305 M 0.499023,2.80811 2.72461,4.57178 -0.928711,9.12793 -3.1123,7.36426 0.499023,2.80811"
         fill-rule="evenodd"
         vector-effect="none" />
    </g>
    <g
       id="g16"
       font-style="normal"
       font-weight="400"
       font-size="7.8px"
       font-family="'MS Shell Dlg 2'"
       stroke="none"
       fill-opacity="1"
       fill="#a61215" />
  </g>
</svg>

<?xml version="1.0" encoding="UTF-8" standalone="no"?>
<svg width="11.2889mm" height="11.2889mm"
 viewBox="0 0 32 32"
 xmlns="http://www.w3.org/2000/svg" xmlns:xlink="http://www.w3.org/1999/xlink"  version="1.2" baseProfile="tiny">
<title>Qt SVG Document</title>
<desc>Generated with Qt</desc>
<defs>
</defs>
<g fill="none" stroke="black" stroke-width="1" fill-rule="evenodd" stroke-linecap="square" stroke-linejoin="bevel" >

<g fill="#a61215" fill-opacity="1" stroke="none" transform="matrix(1,0,0,1,0,0)"
font-family="MS Shell Dlg 2" font-size="7.8" font-weight="400" font-style="normal" 
>
<path vector-effect="non-scaling-stroke" fill-rule="evenodd" d="M37.2598,16 C37.2598,27.7415 27.7415,37.2598 16,37.2598 C4.25851,37.2598 -5.25984,27.7415 -5.25984,16 C-5.25984,4.25851 4.25851,-5.25984 16,-5.25984 C27.7415,-5.25984 37.2598,4.25851 37.2598,16 "/>
</g>

<g fill="#ffffff" fill-opacity="0.94902" stroke="none" transform="matrix(1,0,0,1,14.8661,12.5984)"
font-family="MS Shell Dlg 2" font-size="7.8" font-weight="400" font-style="normal" 
>
<path vector-effect="none" fill-rule="evenodd" d="M5.87402,14.209 C6.36393,14.209 6.78035,14.3805 7.12329,14.7234 C7.46623,15.0663 7.6377,15.4827 7.6377,15.9727 C7.6377,16.4626 7.46623,16.879 7.12329,17.2219 C6.78035,17.5649 6.36393,17.7363 5.87402,17.7363 C5.38411,17.7363 4.96769,17.5649 4.62476,17.2219 C4.28182,16.879 4.11035,16.4626 4.11035,15.9727 C4.11035,15.4827 4.28182,15.0663 4.62476,14.7234 C4.96769,14.3805 5.38411,14.209 5.87402,14.209 M-2.41943,14.209 C-1.94352,14.209 -1.5306,14.3805 -1.18066,14.7234 C-0.830729,15.0663 -0.655762,15.4827 -0.655762,15.9727 C-0.655762,16.4626 -0.830729,16.879 -1.18066,17.2219 C-1.5306,17.5649 -1.94352,17.7363 -2.41943,17.7363 C-2.90934,17.7363 -3.32576,17.5649 -3.6687,17.2219 C-4.01164,16.879 -4.18311,16.4626 -4.18311,15.9727 C-4.18311,15.4827 -4.01164,15.0663 -3.6687,14.7234 C-3.32576,14.3805 -2.90934,14.209 -2.41943,14.209 M8.79248,4.80273 C9.03044,4.85872 9.2054,4.9847 9.31738,5.18066 C9.42936,5.37663 9.45736,5.59359 9.40137,5.83154 L7.72168,12.5713 C7.6377,13.0052 7.36475,13.2222 6.90283,13.2222 L-4.14111,13.2222 C-4.60303,13.2222 -4.87598,13.0052 -4.95996,12.5713 L-7.58447,2.09424 L-8.92822,2.09424 C-9.01221,2.51416 -9.28516,2.72412 -9.74707,2.72412 L-12.5396,2.72412 C-12.7635,2.72412 -12.963,2.64714 -13.1379,2.49316 C-13.3129,2.33919 -13.4004,2.14323 -13.4004,1.90527 C-13.4004,1.7373 -13.3864,1.62533 -13.3584,1.56934 C-13.3864,1.51335 -13.4004,1.40137 -13.4004,1.2334 C-13.4004,0.995443 -13.3129,0.799479 -13.1379,0.645508 C-12.963,0.491536 -12.7635,0.414551 -12.5396,0.414551 L-6.8916,0.414551 C-6.49967,0.414551 -6.22673,0.624512 -6.07275,1.04443 L-3.46924,11.5425 L6.20996,11.5425 L7.76367,5.39063 C7.81966,5.16667 7.94914,4.9952 8.1521,4.87622 C8.35506,4.75724 8.56852,4.73275 8.79248,4.80273 M-2.90234,-0.530273 L-5.35889,0.141602 L-5.2749,-8.23584 L-4.66602,-8.27783 L0.960938,-1.66406 L-1.5166,-0.971191 L0.792969,0.372559 L0.834961,0.498535 L1.27588,1.31738 L0.750977,1.94727 L0.24707,0.918457 L-2.25146,-0.530273 L-3.59521,-4.1416 L-2.90234,-0.530273 M2.68262,6.69238 L3.03955,6.52441 L2.68262,5.83154 L3.20752,5.18066 L3.71143,6.20947 L4.02637,6.0415 L5.22314,8.49805 L3.90039,9.12793 L2.68262,6.69238 M11.9839,-2.81885 L10.4302,2.26221 L2.09473,-4.41455 L5.13916,-8.23584 L11.9839,-2.81885 M10.0942,-5.19141 L8.45654,-6.47217 L8.87646,-7.03906 L10.5142,-5.7373 L10.0942,-5.19141 M6.25195,-0.362305 L2.95557,3.79492 L1.31787,2.47217 L4.61426,-1.66406 L6.25195,-0.362305 M0.499023,2.80811 L2.72461,4.57178 L-0.928711,9.12793 L-3.1123,7.36426 L0.499023,2.80811"/>
</g>

<g fill="#a61215" fill-opacity="1" stroke="none" transform="matrix(1,0,0,1,0,0)"
font-family="MS Shell Dlg 2" font-size="7.8" font-weight="400" font-style="normal" 
>
</g>
</g>
</svg>
